!!!OTL: WEIB DU SOLLST GSCHWIND HAMET GEHN
!!!ARE: Europa, Mitteleuropa, Deutschland, Bayern
!!!SCT: E0910C
!!!YEM: Copyright 1995, estate of Helmut Schaffrath.
**kern
*ICvox
*Ivox
*M3/4
*k[f#]
*G:
=1
{8.g
16g
4g
4g
=2
8.a
16a
4g
8r}
{8g
=3
8.a
16a
4g
4a
=4
2b
4r}
=5
{8.a
16a
2a
=6
8.a
16dd
2dd}
=7
{8.dd
16cc
8b
8a
8g
8f#
=8
8.e
16e
2e}
=9
{8d
8d
8d
8e
8e
8d
=10
8.d
16g
2g}
=11
{8.dd
16cc
8b
8a
8g
8f#
=12
8.e
16e
2e}
=13
{8d
8d
8d
8e
8e
8d
=14
8.d
16g
2g}
==
!!!AGN: Ehestands - Lied
!!!ONB: ESAC (Essen Associative Code) Database: ERK2
!!!AMT: simple triple
!!!AIN: vox
!!!EED: Helmut Schaffrath
!!!EEV: 1.0
*-
